static/assets/img/logos/developer/npm.svg

<svg fill="none" height="48" viewBox="0 0 123 48" width="123" xmlns="http://www.w3.org/2000/svg"><path clip-rule="evenodd" d="m0 41.0207v-41.0207h122.667v41.0207h-61.3337v6.8762h-27.2329v-6.8762zm6.86719-34.14472h13.49811 13.7348v27.26812h-6.8674v-20.3918h-6.8674v20.3918h-13.49811zm34.10041 34.14442v-34.14442h27.2329v27.26812h-13.4981v6.8763zm13.7348-13.7526h6.6307v-13.5155h-6.6307zm20.3655-20.39182h13.4981 27.47v27.26812h-6.868v-20.3918h-6.867v20.3918h-6.8675v-20.3918h-6.8675v20.3918h-13.4981z" fill="#adb5bd" fill-rule="evenodd"/></svg>

<svg width="123" height="48" viewBox="0 0 123 48" fill="none" xmlns="http://www.w3.org/2000/svg">
<path fill-rule="evenodd" clip-rule="evenodd" d="M0 41.0207V0H122.667V41.0207H61.3333V47.8969H34.1004V41.0207H0ZM6.86719 6.87598H20.3653H34.1001V34.1441H27.2327V13.7523H20.3653V34.1441H6.86719V6.87598ZM40.9676 41.0204V6.87598H68.2005V34.1441H54.7024V41.0204H40.9676ZM54.7024 27.2678H61.3331V13.7523H54.7024V27.2678ZM75.0679 6.87598H88.566H116.036V34.1441H109.168V13.7523H102.301V34.1441H95.4335V13.7523H88.566V34.1441H75.0679V6.87598Z" fill="#ADB5BD"/>
</svg>
